build/fonts/cisco/ata.svg

<?xml version="1.0" encoding="UTF-8" standalone="no"?>
<svg
   xmlns:dc="http://purl.org/dc/elements/1.1/"
   xmlns:cc="http://creativecommons.org/ns#"
   xmlns:rdf="http://www.w3.org/1999/02/22-rdf-syntax-ns#"
   xmlns:svg="http://www.w3.org/2000/svg"
   xmlns="http://www.w3.org/2000/svg"
   viewBox="0 0 61.25 32.5"
   height="32.5"
   width="61.25"
   xml:space="preserve"
   version="1.1"
   id="svg2"><metadata
     id="metadata8"><rdf:RDF><cc:Work
         rdf:about=""><dc:format>image/svg+xml</dc:format><dc:type
           rdf:resource="http://purl.org/dc/dcmitype/StillImage" /></cc:Work></rdf:RDF></metadata><defs
     id="defs6"><clipPath
       id="clipPath18"
       clipPathUnits="userSpaceOnUse"><path
         id="path20"
         d="M 0,10 0,251 489,251 489,10 0,10 Z" /></clipPath></defs><g
     transform="matrix(1.25,0,0,-1.25,0,32.5)"
     id="g10"><g
       transform="scale(0.1,0.1)"
       id="g12"><g
         id="g14"><g
           clip-path="url(#clipPath18)"
           id="g16"><path
             id="path22"
             style="fill:#087bbb;fill-opacity:1;fill-rule:nonzero;stroke:none"
             d="m 5.66016,126.73 144.30084,116.68 333.09,0 -119.422,-116.68 -357.96884,0" /><path
             id="path24"
             style="fill:none;stroke:#ffffff;stroke-width:3.99993992;stroke-linecap:butt;stroke-linejoin:miter;stroke-miterlimit:4;stroke-dasharray:none;stroke-opacity:1"
             d="m 5.66016,126.73 144.30084,116.68 333.09,0 -119.422,-116.68 -357.96884,0 z" /><path
             id="path26"
             style="fill:#087bbb;fill-opacity:1;fill-rule:nonzero;stroke:none"
             d="m 363.629,10.7891 119.422,117.3909 0,117.89 -119.422,-119.34 0,-115.9409" /><path
             id="path28"
             style="fill:none;stroke:#ffffff;stroke-width:3.99993992;stroke-linecap:butt;stroke-linejoin:miter;stroke-miterlimit:4;stroke-dasharray:none;stroke-opacity:1"
             d="m 363.629,10.7891 119.422,117.3909 0,117.89 -119.422,-119.34 0,-115.9409 z" /><path
             id="path30"
             style="fill:#087bbb;fill-opacity:1;fill-rule:nonzero;stroke:none"
             d="m 6.12891,10.6797 357.5,0 0,116.051 -357.5,0 0,-116.051 z" /><path
             id="path32"
             style="fill:none;stroke:#ffffff;stroke-width:3.99993992;stroke-linecap:butt;stroke-linejoin:miter;stroke-miterlimit:4;stroke-dasharray:none;stroke-opacity:1"
             d="m 6.12891,10.6797 357.5,0 0,116.051 -357.5,0 0,-116.051 z" /><path
             id="path34"
             style="fill:#ffffff;fill-opacity:1;fill-rule:nonzero;stroke:none"
             d="m 217.969,108.719 c 0,0 4.801,0.511 5.859,-4.262 l 1.051,-18.3164 31.961,-5.3125 3.16,6.9219 -7.969,22.027 c -40.98,10.114 -68.281,6.911 -68.281,6.911 l 1.559,0 c 0,0 -21.559,3.203 -62.539,-6.911 l -7.969,-22.027 3.211,-6.9219 31.91,5.3125 1.058,18.3164 c 1.051,4.773 5.86,4.262 5.86,4.262 l 61.129,0" /><path
             id="path36"
             style="fill:#231f20;fill-opacity:1;fill-rule:nonzero;stroke:none"
             d="m 153.91,21.918 66.9492,0 0,68.4023 -66.9492,0 0,-68.4023 z" /><path
             id="path38"
             style="fill:none;stroke:#ffffff;stroke-width:3.99993992;stroke-linecap:butt;stroke-linejoin:miter;stroke-miterlimit:1;stroke-dasharray:none;stroke-opacity:1"
             d="m 153.91,21.918 66.9492,0 0,68.4023 -66.9492,0 0,-68.4023 z" /><g
             transform="scale(10,10)"
             id="g40"><text
               id="text42"
               style="font-variant:normal;font-weight:bold;font-size:8.14509964px;font-family:Helvetica;-inkscape-font-specification:Helvetica-Bold;writing-mode:lr-tb;fill:#ffffff;fill-opacity:1;fill-rule:nonzero;stroke:none"
               transform="matrix(1,0,0,-1,16.3906,2.66016)"><tspan
                 id="tspan44"
                 y="0"
                 x="0">V</tspan></text>
</g><path
             id="path46"
             style="fill:#a7a5a6;fill-opacity:1;fill-rule:nonzero;stroke:none"
             d="m 139.73,154.309 c 0,-6.918 -14.57,-12.5 -32.5,-12.5 -17.9683,0 -32.4995,5.582 -32.4995,12.5 0,6.871 14.5312,12.5 32.4995,12.5 17.93,0 32.5,-5.629 32.5,-12.5" /><path
             id="path48"
             style="fill:#ffffff;fill-opacity:1;fill-rule:nonzero;stroke:none"
             d="m 139.73,162.238 c 0,-6.918 -14.57,-12.5 -32.5,-12.5 -17.9683,0 -32.4995,5.582 -32.4995,12.5 0,6.91 14.5312,12.5 32.4995,12.5 17.93,0 32.5,-5.59 32.5,-12.5" /></g></g></g></g></svg>

<svg xmlns="http://www.w3.org/2000/svg" viewBox="0 0 61.25 32.5" height="32.5" width="61.25"><defs><clipPath id="a"><path d="M0 10v241h489V10H0z"/></clipPath></defs><g clip-path="url(#a)" transform="matrix(.13 0 0 -.13 0 32.5)"><path d="M5.66 126.73l144.301 116.68h333.09L363.629 126.73H5.66" fill="#087bbb"/><path d="M5.66 126.73l144.301 116.68h333.09L363.629 126.73H5.66z" fill="none" stroke="#fff" stroke-width="4"/><path d="M363.629 10.79l119.422 117.39v117.89L363.629 126.73V10.79" fill="#087bbb"/><path d="M363.629 10.79l119.422 117.39v117.89L363.629 126.73V10.79z" fill="none" stroke="#fff" stroke-width="4"/><path d="M6.129 10.68h357.5v116.05H6.129V10.68z" fill="#087bbb"/><path d="M6.129 10.68h357.5v116.05H6.129V10.68z" fill="none" stroke="#fff" stroke-width="4"/><path d="M217.969 108.719s4.801.511 5.859-4.262l1.051-18.316 31.961-5.313L260 87.75l-7.969 22.027c-40.98 10.114-68.281 6.911-68.281 6.911h1.559s-21.559 3.203-62.539-6.911l-7.969-22.027 3.211-6.922 31.91 5.313 1.058 18.316c1.051 4.773 5.86 4.262 5.86 4.262h61.129" fill="#fff"/><path d="M153.91 21.918h66.95V90.32h-66.95V21.918z" fill="#231f20"/><path d="M153.91 21.918h66.95V90.32h-66.95V21.918z" fill="none" stroke="#fff" stroke-width="4" stroke-miterlimit="1"/><text style="-inkscape-font-specification:Helvetica-Bold" transform="matrix(10 0 0 -10 163.906 26.602)" font-weight="700" font-size="8.145" font-family="Helvetica" fill="#fff"><tspan y="0" x="0">V</tspan></text><path d="M139.73 154.309c0-6.918-14.57-12.5-32.5-12.5-17.968 0-32.5 5.582-32.5 12.5 0 6.871 14.532 12.5 32.5 12.5 17.93 0 32.5-5.629 32.5-12.5" fill="#a7a5a6"/><path d="M139.73 162.238c0-6.918-14.57-12.5-32.5-12.5-17.968 0-32.5 5.582-32.5 12.5 0 6.91 14.532 12.5 32.5 12.5 17.93 0 32.5-5.59 32.5-12.5" fill="#fff"/></g></svg>
